X: 692
T: Planxty Browne
C: O'Carolan
B: O'Neill's 1850 #692
Z: 1997 by John Chambers <jc@trillian.mit.edu>
Q: "Lively"
M: 6/8
L: 1/8
K: G
|: g |\
dBG Bcd | E2E E2c | AFD DEF | G3 G2 :|\
|: g/a/ |\
bgb afd | efg gfe |[1 dBg dBG | AFD D2 :|\
[2 faf ge^c |
d2d de=f |]\
ece dBd | cac BgB | Ace dBG | FAF DEF ||\
GAB EFG | ABc def | gdB cAF | G3 G2 |]
